svgs/sharp-regular/trumpet.svg

<svg xmlns="http://www.w3.org/2000/svg" viewBox="0 0 640 512"><!--! Font Awesome Pro 6.6.0 by @fontawesome - https://fontawesome.com License - https://fontawesome.com/license (Commercial License) Copyright 2024 Fonticons, Inc. --><path d="M595.4 48L608 48l8 0 24 0 0 24 0 336 0 24-24 0-8 0-12.6 0-7.1-10.4s0 0 0 0s0 0 0 0s0 0 0 0l-.1-.2-.6-.9c-.6-.8-1.5-2-2.7-3.6c-2.4-3.2-6-7.9-10.7-13.5c-9.4-11.3-23.1-26.4-40-41.4C499.5 331.3 455.1 304 408 304l-8 0 0 112 8 0c30.9 0 56-25.1 56-56c0-3.1-.2-6.1-.7-9c15.9 8.2 31.5 19.2 46.2 31.9C499 429.3 457.6 464 408 464l-8 0-48 0-40 0-48 0-40 0-48 0-8 0c-57.4 0-104-46.6-104-104c0-20.6 6-39.8 16.3-56L48 304l0 8 0 24L0 336l0-24 0-32 0-80 0-32 0-24 48 0 0 24 0 8 128 0 0-8 0-24 48 0 0 24 0 8 40 0 0-8 0-24 48 0 0 24 0 8 40 0 0-8 0-24 48 0 0 24 0 8 8 0c47.1 0 91.5-27.3 126.1-57.9c16.9-15 30.6-30.1 40-41.4c4.7-5.7 8.3-10.3 10.7-13.5c1.2-1.6 2.1-2.8 2.7-3.6l.6-.9 .1-.2s0 0 0 0s0 0 0 0s0 0 0 0L595.4 48zM168 256l184 0 56 0c64.9 0 120.5 36.7 157.9 70.1c9.7 8.6 18.4 17.2 26.1 25.3l0-222.7c-7.6 8-16.4 16.7-26.1 25.3C528.5 187.3 472.9 224 408 224L48 224l0 32 120 0zm0 48c-30.9 0-56 25.1-56 56s25.1 56 56 56l8 0 0-112-8 0zm56 0l0 112 40 0 0-112-40 0zm88 0l0 112 40 0 0-112-40 0z"/></svg>

<svg xmlns="http://www.w3.org/2000/svg" viewBox="0 0 640 512"><!--! Font Awesome Pro 6.4.0 by @fontawesome - https://fontawesome.com License - https://fontawesome.com/license (Commercial License) Copyright 2023 Fonticons, Inc. --><path d="M595.4 48H608h8 24V72 408v24H616h-8H595.4l-7.1-10.4 0 0 0 0 0 0-.1-.2-.6-.9c-.6-.8-1.5-2-2.7-3.6c-2.4-3.2-6-7.9-10.7-13.5c-9.4-11.3-23.1-26.4-40-41.4C499.5 331.3 455.1 304 408 304h-8V416h8c30.9 0 56-25.1 56-56c0-3.1-.2-6.1-.7-9c15.9 8.2 31.5 19.2 46.2 31.9C499 429.3 457.6 464 408 464h-8H352 312 264 224 176h-8c-57.4 0-104-46.6-104-104c0-20.6 6-39.8 16.3-56H48v8 24H0V312 280 200 168 144H48v24 8H176v-8V144h48v24 8h40v-8V144h48v24 8h40v-8V144h48v24 8h8c47.1 0 91.5-27.3 126.1-57.9c16.9-15 30.6-30.1 40-41.4c4.7-5.7 8.3-10.3 10.7-13.5c1.2-1.6 2.1-2.8 2.7-3.6l.6-.9 .1-.2 0 0 0 0 0 0L595.4 48zM168 256H352h56c64.9 0 120.5 36.7 157.9 70.1c9.7 8.6 18.4 17.2 26.1 25.3V128.7c-7.6 8-16.4 16.7-26.1 25.3C528.5 187.3 472.9 224 408 224H48v32H168zm0 48c-30.9 0-56 25.1-56 56s25.1 56 56 56h8V304h-8zm56 0V416h40V304H224zm88 0V416h40V304H312z"/></svg>
